static/assets/img/icons/theme/weather/thunder-night.svg

<svg height="24" viewBox="0 0 24 24" width="24" xmlns="http://www.w3.org/2000/svg"><g fill="none" fill-rule="evenodd"><path d="m0 0h24v24h-24z" opacity="0"/><g fill="#000"><path d="m17.2283644.20458594c-.1335654.8389813-.0548725 1.72329701.2714718 2.57345298.9843681 2.56436642 3.8511695 3.85200153 6.4187816 2.89158433-.271458 1.70514382-1.419679 3.22302743-3.1475342 3.8862889-2.5780111.98960575-5.4701361-.29805123-6.4597418-2.87606239-.9896058-2.57801116.2980512-5.47013611 2.8760623-6.45974188.0136448-.00523772.0272983-.01041166.0409603-.01552194zm-7.1394757 23.79541406v-4h-2.22222222l4.44444442-6v4h2.2222222z" opacity=".3"/><path d="m5.74714567 14.0425758c-1.65304205-1.0685402-2.74714567-2.9277872-2.74714567-5.0425758 0-3.3137085 2.6862915-6 6-6 2.7957591 0 5.1449096 1.91215918 5.8109738 4.5h2.4390262c2.0710678 0 3.75 1.67893219 3.75 3.75 0 2.0710678-1.6789322 3.75-3.75 3.75h-9c-.96182105 0-1.83906822-.3621038-2.50285433-.9574242z"/></g></g></svg>

<svg width="24px" height="24px" viewBox="0 0 24 24" version="1.1" xmlns="http://www.w3.org/2000/svg" xmlns:xlink="http://www.w3.org/1999/xlink">
    <title>Icon For Thunder-night</title>
    <g stroke="none" stroke-width="1" fill="none" fill-rule="evenodd">
        <polygon points="0 0 24 0 24 24 0 24" opacity="0"></polygon>
        <path d="M17.2283644,0.204585937 C17.094799,1.04356724 17.1734919,1.92788295 17.4998362,2.77803892 C18.4842043,5.34240534 21.3510057,6.63004045 23.9186178,5.66962325 C23.6471598,7.37476707 22.4989388,8.89265068 20.7710836,9.55591215 C18.1930725,10.5455179 15.3009475,9.25786092 14.3113418,6.67984976 C13.321736,4.1018386 14.609393,1.20971365 17.1874041,0.220107883 C17.2010489,0.214870157 17.2147024,0.209696224 17.2283644,0.204585937 Z M10.0888887,24 L10.0888887,20 L7.86666648,20 L12.3111109,14 L12.3111109,18 L14.5333331,18 L10.0888887,24 Z" fill="#000000" opacity="0.3"></path>
        <path d="M5.74714567,14.0425758 C4.09410362,12.9740356 3,11.1147886 3,9 C3,5.6862915 5.6862915,3 9,3 C11.7957591,3 14.1449096,4.91215918 14.8109738,7.5 L17.25,7.5 C19.3210678,7.5 21,9.17893219 21,11.25 C21,13.3210678 19.3210678,15 17.25,15 L8.25,15 C7.28817895,15 6.41093178,14.6378962 5.74714567,14.0425758 Z" fill="#000000"></path>
    </g>
</svg>
